X: 2
T: The Girl Who Broke My Heart
R: reel
M: 4/4
L: 1/8
K: Gmix
ABAG FD[CD]F | DG{A}GF GABc | defd cAGF | DF{G}FE FAdc|ABAG FD[CD]F | DG{A}GF GABc | defd cAGF | D2G2 [G,4G4] |ABAG FD[C2D2] | D~G3 GABc | defd cAGF | DF{G}FE FAdc|(3AcdAG FD[CD]F | DG{A}GF GABc | defd cAGF | DG{A}GF GDE^F| |:G2Bd gdBG | (3FFFAc fcAF | FGBd gdBd|~c2 Bd cAFA |~G2 Bd gdBG | EFAc fcAF | GABd cAGF |1 DG{A}GF GDE^F:|2DG{A}GF GAdc|


Tune 669	Setting 27055

